online-zoo/images/error-404.svg

<svg width="675" height="558" viewBox="0 0 675 558" fill="none" xmlns="http://www.w3.org/2000/svg">
<path d="M0 376.692L95.6375 246.881H149.744V376.692H167.916V407.752H149.744V451.905H95.618V407.752H0V376.692ZM95.618 376.692V312.664L50.9287 376.692H95.618Z" fill="#75D1F9"/>
<path d="M506.012 376.692L601.63 246.881H655.737V376.692H675.001V407.752H655.737V451.905H601.63V407.752H506.012V376.692ZM601.63 376.692V312.664L556.94 376.692H601.63Z" fill="#75D1F9"/>
<path d="M339.721 555.418C443.979 554.012 527.353 468.261 525.943 363.889C524.533 259.516 438.873 176.046 334.615 177.453C230.357 178.86 146.983 264.61 148.393 368.983C149.803 473.355 235.464 556.825 339.721 555.418Z" fill="#75D1F9"/>
<path d="M425.015 414.283C458.571 389.135 491.737 397.908 509.793 406.29C511.645 393.092 526.229 233.26 338.795 233.26C338.756 233.26 338.737 233.26 338.698 233.26C338.659 233.26 338.639 233.26 338.6 233.26C153.35 233.26 165.731 393.092 167.584 406.29C185.639 397.908 218.805 389.135 252.361 414.283C286.112 439.586 285.176 477.307 281.081 498.965C299.663 502.299 319.18 503.819 338.6 503.917C338.639 503.917 338.659 503.917 338.698 503.917C338.737 503.917 338.756 503.917 338.795 503.917C358.196 503.819 377.733 502.299 396.314 498.965C392.22 477.307 391.264 439.567 425.015 414.283ZM338.951 398.648C335.091 398.648 328.715 392.976 327.994 387.771C327.038 381.63 335.091 381.143 339.595 380.909C358.742 380.87 345.269 398.648 338.951 398.648Z" fill="white"/>
<path d="M339.575 380.909C335.071 381.143 327.038 381.61 327.974 387.771C328.675 392.975 335.071 398.648 338.931 398.648C345.268 398.648 358.741 380.87 339.575 380.909Z" fill="#333333"/>
<path d="M252.361 414.283C218.805 389.135 185.639 397.908 167.584 406.29C175.305 461.244 223.66 488.692 281.082 498.965C285.176 477.307 286.112 439.567 252.361 414.283Z" fill="white"/>
<path d="M509.792 406.29C491.737 397.908 458.571 389.135 425.015 414.283C391.264 439.586 392.2 477.307 396.295 498.965C453.716 488.672 502.091 461.225 509.792 406.29Z" fill="white"/>
<path d="M213.153 249.83C201.454 255.015 200.869 271.176 211.457 277.921L234.269 260.669C229.746 248.173 218.983 247.335 213.153 249.83Z" fill="#FFC1C2"/>
<path d="M199.814 221.856C166.375 236.671 164.699 282.872 194.979 302.133L260.18 252.812C247.253 217.138 216.485 214.76 199.814 221.856ZM211.455 277.901C200.867 271.156 201.452 254.996 213.151 249.81C218.981 247.334 229.744 248.153 234.267 260.629L211.455 277.901Z" fill="#333333"/>
<path d="M464.382 249.83C458.552 247.354 447.789 248.173 443.266 260.649L466.078 277.902C476.666 271.176 476.081 255.015 464.382 249.83Z" fill="#FFC1C2"/>
<path d="M477.719 221.856C461.049 214.76 430.281 217.138 417.373 252.793L482.555 302.113C512.835 282.872 511.139 236.691 477.719 221.856ZM466.079 277.901L443.266 260.649C447.79 248.173 458.553 247.335 464.383 249.83C476.081 255.015 476.666 271.176 466.079 277.901Z" fill="#333333"/>
<path d="M309.57 463.252C312.593 473.915 324.486 481.888 338.7 481.888C348.293 481.888 356.814 478.262 362.273 472.648C348.215 461.049 324.603 456.643 309.57 463.252Z" fill="#FF7979"/>
<path d="M509.792 406.29C491.737 397.908 458.571 389.135 425.015 414.283C391.264 439.586 392.2 477.307 396.295 498.965C453.716 488.672 502.091 461.225 509.792 406.29Z" fill="#FFDBDB"/>
<path d="M368.57 457.93C368.57 444.693 355.194 433.972 338.699 433.972C322.204 433.972 308.828 444.693 308.828 457.93C308.828 459.762 309.101 461.536 309.569 463.252C324.621 456.643 348.233 461.049 362.272 472.648C366.211 468.593 368.57 463.486 368.57 457.93Z" fill="#333333"/>
<path d="M252.361 414.283C218.805 389.135 185.639 397.908 167.584 406.29C175.305 461.244 223.66 488.692 281.082 498.965C285.176 477.307 286.112 439.567 252.361 414.283Z" fill="#FFDBDB"/>
<path d="M313.312 333.811C324.815 349.913 312.941 378.101 286.794 396.757C260.648 415.413 230.133 417.499 218.629 401.397C207.145 385.295 219 357.106 245.166 338.45C271.313 319.794 301.827 317.709 313.312 333.811Z" fill="#333333"/>
<path d="M364.066 333.811C352.562 349.913 364.436 378.101 390.583 396.757C416.73 415.413 447.244 417.499 458.748 401.397C470.252 385.295 458.377 357.106 432.231 338.45C406.064 319.794 375.55 317.709 364.066 333.811Z" fill="#333333"/>
<path d="M396.022 355.391C389.841 355.391 384.83 360.401 384.83 366.6C384.83 372.78 389.841 377.809 396.022 377.809C402.203 377.809 407.233 372.799 407.233 366.6C407.233 360.42 402.203 355.391 396.022 355.391ZM396.022 369.563C394.384 369.563 393.058 368.237 393.058 366.6C393.058 364.962 394.384 363.637 396.022 363.637C397.66 363.637 398.986 364.962 398.986 366.6C398.986 368.237 397.66 369.563 396.022 369.563Z" fill="white"/>
<path d="M281.356 355.391C275.175 355.391 270.145 360.401 270.145 366.6C270.145 372.78 275.156 377.809 281.356 377.809C287.537 377.809 292.548 372.799 292.548 366.6C292.567 360.42 287.556 355.391 281.356 355.391ZM281.356 369.563C279.718 369.563 278.392 368.237 278.392 366.6C278.392 364.962 279.718 363.637 281.356 363.637C282.994 363.637 284.32 364.962 284.32 366.6C284.32 368.237 282.994 369.563 281.356 369.563Z" fill="white"/>
<path d="M472.416 228.191C485.421 231.759 495.19 244.586 495.17 257.589C495.17 264.762 488.424 268.33 479.845 248.777C473.43 234.157 456.506 234.41 458.612 230.414C460.289 227.197 467.6 226.866 472.416 228.191Z" fill="#4D4D4D"/>
<path d="M205.117 228.191C192.112 231.759 182.344 244.586 182.344 257.589C182.344 264.762 189.09 268.33 197.669 248.777C204.084 234.157 221.008 234.41 218.902 230.414C217.226 227.197 209.914 226.866 205.117 228.191Z" fill="#4D4D4D"/>
<path d="M338.074 218.639C347.433 139.98 438.352 156.433 507.726 155.01C563.802 153.86 593.751 147.895 589.852 87.5217C588.487 66.234 607.634 -8.87695 494.526 1.14305C381.418 11.163 262.169 -1.91753 190.143 0.246319C118.118 2.41017 92.0686 17.4402 90.7038 82.5312C89.3389 147.622 99.2049 159.65 204.63 153.88C341.838 146.374 338.074 218.639 338.074 218.639Z" fill="#333333"/>
<path d="M228.526 69.1C228.526 74.2333 228.06 79.1333 227.126 83.8C226.26 88.4 224.593 92.4667 222.126 96C219.66 99.4667 216.293 102.267 212.026 104.4C207.76 106.467 202.226 107.5 195.426 107.5C188.626 107.5 183.093 106.467 178.826 104.4C174.56 102.267 171.193 99.4333 168.726 95.9C166.326 92.3667 164.66 88.3 163.726 83.7C162.86 79.0333 162.426 74.1667 162.426 69.1C162.426 64.5 162.86 60 163.726 55.6C164.66 51.2 166.326 47.2667 168.726 43.8C171.193 40.3333 174.56 37.5667 178.826 35.5C183.16 33.3667 188.693 32.3 195.426 32.3C202.16 32.3 207.66 33.3667 211.926 35.5C216.26 37.5667 219.626 40.3333 222.026 43.8C224.493 47.2667 226.193 51.2 227.126 55.6C228.06 60 228.526 64.5 228.526 69.1ZM210.126 69.1C210.126 65.1667 209.86 61.8333 209.326 59.1C208.86 56.3 208.026 54.0333 206.826 52.3C205.693 50.5667 204.193 49.3 202.326 48.5C200.46 47.7 198.16 47.3 195.426 47.3C192.693 47.3 190.393 47.7 188.526 48.5C186.66 49.2333 185.16 50.4667 184.026 52.2C182.893 53.9333 182.093 56.2 181.626 59C181.16 61.7333 180.926 65.1 180.926 69.1C180.926 73.5667 181.16 77.3 181.626 80.3C182.16 83.3 182.993 85.7333 184.126 87.6C185.26 89.4 186.726 90.7 188.526 91.5C190.393 92.2333 192.693 92.6 195.426 92.6C198.16 92.6 200.46 92.2 202.326 91.4C204.193 90.6 205.693 89.3 206.826 87.5C208.026 85.6333 208.86 83.2 209.326 80.2C209.86 77.2 210.126 73.5 210.126 69.1ZM291.764 79C291.764 83.2 291.23 87.0333 290.164 90.5C289.164 93.9667 287.53 96.9667 285.264 99.5C283.064 102.033 280.164 104 276.564 105.4C272.964 106.8 268.564 107.5 263.364 107.5C258.164 107.5 253.764 106.8 250.164 105.4C246.63 104 243.73 102.067 241.464 99.6C239.197 97.0667 237.564 94.0667 236.564 90.6C235.564 87.1333 235.064 83.3 235.064 79.1C235.064 74.9 235.564 71.0667 236.564 67.6C237.564 64.1333 239.197 61.1667 241.464 58.7C243.73 56.1667 246.63 54.2 250.164 52.8C253.764 51.4 258.164 50.7 263.364 50.7C268.564 50.7 272.964 51.4 276.564 52.8C280.164 54.1333 283.064 56.0667 285.264 58.6C287.53 61.0667 289.164 64.0333 290.164 67.5C291.23 70.9667 291.764 74.8 291.764 79ZM273.464 79C273.464 75.9333 273.264 73.4333 272.864 71.5C272.464 69.5667 271.83 68.0333 270.964 66.9C270.097 65.7667 269.03 65 267.764 64.6C266.497 64.1333 265.03 63.9 263.364 63.9C261.63 63.9 260.13 64.1333 258.864 64.6C257.664 65 256.63 65.7667 255.764 66.9C254.897 68.0333 254.264 69.6 253.864 71.6C253.464 73.5333 253.264 76.0333 253.264 79.1C253.264 82.1667 253.464 84.7 253.864 86.7C254.264 88.6333 254.897 90.2 255.764 91.4C256.63 92.5333 257.664 93.3333 258.864 93.8C260.13 94.2 261.63 94.4 263.364 94.4C265.03 94.4 266.497 94.1667 267.764 93.7C269.03 93.2333 270.097 92.4333 270.964 91.3C271.83 90.1 272.464 88.5333 272.864 86.6C273.264 84.6 273.464 82.0667 273.464 79ZM354.068 79C354.068 83.2 353.535 87.0333 352.468 90.5C351.468 93.9667 349.835 96.9667 347.568 99.5C345.368 102.033 342.468 104 338.868 105.4C335.268 106.8 330.868 107.5 325.668 107.5C320.468 107.5 316.068 106.8 312.468 105.4C308.935 104 306.035 102.067 303.768 99.6C301.502 97.0667 299.868 94.0667 298.868 90.6C297.868 87.1333 297.368 83.3 297.368 79.1C297.368 74.9 297.868 71.0667 298.868 67.6C299.868 64.1333 301.502 61.1667 303.768 58.7C306.035 56.1667 308.935 54.2 312.468 52.8C316.068 51.4 320.468 50.7 325.668 50.7C330.868 50.7 335.268 51.4 338.868 52.8C342.468 54.1333 345.368 56.0667 347.568 58.6C349.835 61.0667 351.468 64.0333 352.468 67.5C353.535 70.9667 354.068 74.8 354.068 79ZM335.768 79C335.768 75.9333 335.568 73.4333 335.168 71.5C334.768 69.5667 334.135 68.0333 333.268 66.9C332.402 65.7667 331.335 65 330.068 64.6C328.802 64.1333 327.335 63.9 325.668 63.9C323.935 63.9 322.435 64.1333 321.168 64.6C319.968 65 318.935 65.7667 318.068 66.9C317.202 68.0333 316.568 69.6 316.168 71.6C315.768 73.5333 315.568 76.0333 315.568 79.1C315.568 82.1667 315.768 84.7 316.168 86.7C316.568 88.6333 317.202 90.2 318.068 91.4C318.935 92.5333 319.968 93.3333 321.168 93.8C322.435 94.2 323.935 94.4 325.668 94.4C327.335 94.4 328.802 94.1667 330.068 93.7C331.335 93.2333 332.402 92.4333 333.268 91.3C334.135 90.1 334.768 88.5333 335.168 86.6C335.568 84.6 335.768 82.0667 335.768 79ZM416.673 78.8C416.673 83.2 416.106 87.1667 414.973 90.7C413.84 94.2333 412.14 97.2667 409.873 99.8C407.606 102.267 404.706 104.167 401.173 105.5C397.706 106.833 393.64 107.5 388.973 107.5C387.573 107.5 386.006 107.333 384.273 107C382.606 106.733 380.94 106.2 379.273 105.4C379.673 106.333 379.94 107 380.073 107.4C380.273 107.8 380.373 108.267 380.373 108.8V130.3H362.273V52.3H375.773L377.273 56.1C379.34 54.2333 381.573 52.8667 383.973 52C386.373 51.1333 388.84 50.7 391.373 50.7C395.04 50.7 398.406 51.2667 401.473 52.4C404.606 53.5333 407.306 55.2667 409.573 57.6C411.84 59.9333 413.573 62.8667 414.773 66.4C416.04 69.8667 416.673 74 416.673 78.8ZM398.573 78.8C398.573 73.4667 397.773 69.4667 396.173 66.8C394.64 64.1333 392.04 62.8 388.373 62.8C387.24 62.8 386.006 63.0333 384.673 63.5C383.406 63.9 381.973 64.5667 380.373 65.5V93.8C381.906 94.5333 383.273 95 384.473 95.2C385.673 95.3333 386.873 95.4 388.073 95.4C391.806 95.4 394.473 94.0667 396.073 91.4C397.74 88.7333 398.573 84.5333 398.573 78.8ZM471.871 88.7C471.871 91.9 471.237 94.6667 469.971 97C468.771 99.3333 467.071 101.3 464.871 102.9C462.671 104.433 460.037 105.567 456.971 106.3C453.904 107.1 450.537 107.5 446.871 107.5C440.071 107.5 434.671 106.3 430.671 103.9C426.671 101.5 423.737 98.4 421.871 94.6L434.571 89.8C435.971 91.9333 437.637 93.4333 439.571 94.3C441.571 95.1667 444.004 95.6 446.871 95.6C447.804 95.6 448.737 95.5333 449.671 95.4C450.604 95.2667 451.437 95.0333 452.171 94.7C452.904 94.3667 453.504 93.8667 453.971 93.2C454.437 92.5333 454.671 91.7 454.671 90.7C454.671 89.6333 454.437 88.7333 453.971 88C453.504 87.2 452.404 86.6333 450.671 86.3L437.871 84.2C435.804 83.8667 433.871 83.3 432.071 82.5C430.271 81.7 428.671 80.6333 427.271 79.3C425.937 77.9 424.871 76.2 424.071 74.2C423.337 72.2 422.971 69.8667 422.971 67.2C422.971 64.2 423.604 61.6667 424.871 59.6C426.204 57.4667 427.971 55.7667 430.171 54.5C432.371 53.1667 434.937 52.2 437.871 51.6C440.804 51 443.904 50.7 447.171 50.7C452.837 50.7 457.571 51.6333 461.371 53.5C465.171 55.3667 468.237 58 470.571 61.4L458.771 67.6C457.437 66.0667 455.837 64.8667 453.971 64C452.104 63.1333 449.837 62.7 447.171 62.7C445.371 62.7 443.737 62.9667 442.271 63.5C440.871 64.0333 440.171 65.1667 440.171 66.9C440.171 68.9667 441.271 70.2 443.471 70.6L454.771 72.5C457.371 72.9 459.704 73.5 461.771 74.3C463.904 75.0333 465.704 76.0333 467.171 77.3C468.704 78.5667 469.871 80.1333 470.671 82C471.471 83.8667 471.871 86.1 471.871 88.7ZM495.254 83.3H481.954L479.654 65.1V28.1H497.354V65.2L495.254 83.3ZM497.454 104.9C497.454 105.633 497.12 106 496.454 106H480.654C479.987 106 479.654 105.633 479.654 104.9V89.4C479.654 88.8667 479.72 88.5333 479.854 88.4C479.987 88.2667 480.254 88.2 480.654 88.2H496.454C496.854 88.2 497.12 88.2667 497.254 88.4C497.387 88.5333 497.454 88.8667 497.454 89.4V104.9Z" fill="white"/>
</svg>

<svg width="675" height="558" fill="none" xmlns="http://www.w3.org/2000/svg"><path d="M0 376.692l95.638-129.811h54.106v129.811h18.172v31.06h-18.172v44.153H95.618v-44.153H0v-31.06zm95.618 0v-64.028l-44.69 64.028h44.69zm410.394 0l95.618-129.811h54.107v129.811h19.264v31.06h-19.264v44.153H601.63v-44.153h-95.618v-31.06zm95.618 0v-64.028l-44.69 64.028h44.69z" fill="#75D1F9"/><path d="M339.721 555.418c104.258-1.406 187.632-87.157 186.222-191.529-1.41-104.373-87.07-187.843-191.328-186.436-104.258 1.407-187.632 87.157-186.222 191.53 1.41 104.372 87.071 187.842 191.328 186.435z" fill="#75D1F9"/><path d="M425.015 414.283c33.556-25.148 66.722-16.375 84.778-7.993 1.852-13.198 16.436-173.03-170.998-173.03h-.195c-185.25 0-172.869 159.832-171.016 173.03 18.055-8.382 51.221-17.155 84.777 7.993 33.751 25.303 32.815 63.024 28.72 84.682 18.582 3.334 38.099 4.854 57.519 4.952h.195c19.401-.098 38.938-1.618 57.519-4.952-4.094-21.658-5.05-59.398 28.701-84.682zm-86.064-15.635c-3.86 0-10.236-5.672-10.957-10.877-.956-6.141 7.097-6.628 11.601-6.862 19.147-.039 5.674 17.739-.644 17.739z" fill="#fff"/><path d="M339.575 380.909c-4.504.234-12.537.701-11.601 6.862.701 5.204 7.097 10.877 10.957 10.877 6.337 0 19.81-17.778.644-17.739z" fill="#333"/><path d="M252.361 414.283c-33.556-25.148-66.722-16.375-84.777-7.993 7.721 54.954 56.076 82.402 113.498 92.675 4.094-21.658 5.03-59.398-28.721-84.682zm257.431-7.993c-18.055-8.382-51.221-17.155-84.777 7.993-33.751 25.303-32.815 63.024-28.72 84.682 57.421-10.293 105.796-37.74 113.497-92.675z" fill="#fff"/><path d="M213.153 249.83c-11.699 5.185-12.284 21.346-1.696 28.091l22.812-17.252c-4.523-12.496-15.286-13.334-21.116-10.839z" fill="#FFC1C2"/><path d="M199.814 221.856c-33.439 14.815-35.115 61.016-4.835 80.277l65.201-49.321c-12.927-35.674-43.695-38.052-60.366-30.956zm11.641 56.045c-10.588-6.745-10.003-22.905 1.696-28.091 5.83-2.476 16.593-1.657 21.116 10.819l-22.812 17.272z" fill="#333"/><path d="M464.382 249.83c-5.83-2.476-16.593-1.657-21.116 10.819l22.812 17.253c10.588-6.726 10.003-22.887-1.696-28.072z" fill="#FFC1C2"/><path d="M477.719 221.856c-16.67-7.096-47.438-4.718-60.346 30.937l65.182 49.32c30.28-19.241 28.584-65.422-4.836-80.257zm-11.64 56.045l-22.813-17.252c4.524-12.476 15.287-13.314 21.117-10.819 11.698 5.185 12.283 21.346 1.696 28.071z" fill="#333"/><path d="M309.57 463.252c3.023 10.663 14.916 18.636 29.13 18.636 9.593 0 18.114-3.626 23.573-9.24-14.058-11.599-37.67-16.005-52.703-9.396z" fill="#FF7979"/><path d="M509.792 406.29c-18.055-8.382-51.221-17.155-84.777 7.993-33.751 25.303-32.815 63.024-28.72 84.682 57.421-10.293 105.796-37.74 113.497-92.675z" fill="#FFDBDB"/><path d="M368.57 457.93c0-13.237-13.376-23.958-29.871-23.958-16.495 0-29.871 10.721-29.871 23.958 0 1.832.273 3.606.741 5.322 15.052-6.609 38.664-2.203 52.703 9.396 3.939-4.055 6.298-9.162 6.298-14.718z" fill="#333"/><path d="M252.361 414.283c-33.556-25.148-66.722-16.375-84.777-7.993 7.721 54.954 56.076 82.402 113.498 92.675 4.094-21.658 5.03-59.398-28.721-84.682z" fill="#FFDBDB"/><path d="M313.312 333.811c11.503 16.102-.371 44.29-26.518 62.946-26.146 18.656-56.661 20.742-68.165 4.64-11.484-16.102.371-44.291 26.537-62.947 26.147-18.656 56.661-20.741 68.146-4.639zm50.754 0c-11.504 16.102.37 44.29 26.517 62.946s56.661 20.742 68.165 4.64c11.504-16.102-.371-44.291-26.517-62.947-26.167-18.656-56.681-20.741-68.165-4.639z" fill="#333"/><path d="M396.022 355.391c-6.181 0-11.192 5.01-11.192 11.209 0 6.18 5.011 11.209 11.192 11.209s11.211-5.01 11.211-11.209c0-6.18-5.03-11.209-11.211-11.209zm0 14.172a2.962 2.962 0 110-5.926 2.962 2.962 0 110 5.926zm-114.666-14.172c-6.181 0-11.211 5.01-11.211 11.209 0 6.18 5.011 11.209 11.211 11.209 6.181 0 11.192-5.01 11.192-11.209.019-6.18-4.992-11.209-11.192-11.209zm0 14.172a2.962 2.962 0 110-5.926 2.962 2.962 0 110 5.926z" fill="#fff"/><path d="M472.416 228.191c13.005 3.568 22.774 16.395 22.754 29.398 0 7.173-6.746 10.741-15.325-8.812-6.415-14.62-23.339-14.367-21.233-18.363 1.677-3.217 8.988-3.548 13.804-2.223zm-267.299 0c-13.005 3.568-22.773 16.395-22.773 29.398 0 7.173 6.746 10.741 15.325-8.812 6.415-14.62 23.339-14.367 21.233-18.363-1.676-3.217-8.988-3.548-13.785-2.223z" fill="#4D4D4D"/><path d="M338.074 218.639c9.359-78.659 100.278-62.206 169.652-63.629 56.076-1.15 86.025-7.115 82.126-67.488-1.365-21.288 17.782-96.399-95.326-86.379-113.108 10.02-232.357-3.06-304.383-.897-72.025 2.164-98.074 17.194-99.44 82.285-1.364 65.091 8.502 77.119 113.927 71.349 137.208-7.506 133.444 64.759 133.444 64.759z" fill="#333"/><path d="M228.526 69.1c0 5.133-.466 10.033-1.4 14.7-.866 4.6-2.533 8.667-5 12.2-2.466 3.467-5.833 6.267-10.1 8.4-4.266 2.067-9.8 3.1-16.6 3.1-6.8 0-12.333-1.033-16.6-3.1-4.266-2.133-7.633-4.967-10.1-8.5-2.4-3.533-4.066-7.6-5-12.2-.866-4.667-1.3-9.533-1.3-14.6 0-4.6.434-9.1 1.3-13.5.934-4.4 2.6-8.333 5-11.8 2.467-3.467 5.834-6.233 10.1-8.3 4.334-2.133 9.867-3.2 16.6-3.2 6.734 0 12.234 1.067 16.5 3.2 4.334 2.067 7.7 4.833 10.1 8.3 2.467 3.467 4.167 7.4 5.1 11.8.934 4.4 1.4 8.9 1.4 13.5zm-18.4 0c0-3.933-.266-7.267-.8-10-.466-2.8-1.3-5.067-2.5-6.8-1.133-1.733-2.633-3-4.5-3.8-1.866-.8-4.166-1.2-6.9-1.2-2.733 0-5.033.4-6.9 1.2-1.866.733-3.366 1.967-4.5 3.7-1.133 1.733-1.933 4-2.4 6.8-.466 2.733-.7 6.1-.7 10.1 0 4.467.234 8.2.7 11.2.534 3 1.367 5.433 2.5 7.3 1.134 1.8 2.6 3.1 4.4 3.9 1.867.733 4.167 1.1 6.9 1.1 2.734 0 5.034-.4 6.9-1.2 1.867-.8 3.367-2.1 4.5-3.9 1.2-1.867 2.034-4.3 2.5-7.3.534-3 .8-6.7.8-11.1zm81.638 9.9c0 4.2-.534 8.033-1.6 11.5-1 3.467-2.634 6.467-4.9 9-2.2 2.533-5.1 4.5-8.7 5.9-3.6 1.4-8 2.1-13.2 2.1-5.2 0-9.6-.7-13.2-2.1-3.534-1.4-6.434-3.333-8.7-5.8-2.267-2.533-3.9-5.533-4.9-9-1-3.467-1.5-7.3-1.5-11.5s.5-8.033 1.5-11.5c1-3.467 2.633-6.433 4.9-8.9 2.266-2.533 5.166-4.5 8.7-5.9 3.6-1.4 8-2.1 13.2-2.1 5.2 0 9.6.7 13.2 2.1 3.6 1.333 6.5 3.267 8.7 5.8 2.266 2.467 3.9 5.433 4.9 8.9 1.066 3.467 1.6 7.3 1.6 11.5zm-18.3 0c0-3.067-.2-5.567-.6-7.5-.4-1.933-1.034-3.467-1.9-4.6-.867-1.133-1.934-1.9-3.2-2.3-1.267-.467-2.734-.7-4.4-.7-1.734 0-3.234.233-4.5.7-1.2.4-2.234 1.167-3.1 2.3-.867 1.133-1.5 2.7-1.9 4.7-.4 1.933-.6 4.433-.6 7.5s.2 5.6.6 7.6c.4 1.933 1.033 3.5 1.9 4.7.866 1.133 1.9 1.933 3.1 2.4 1.266.4 2.766.6 4.5.6 1.666 0 3.133-.233 4.4-.7 1.266-.467 2.333-1.267 3.2-2.4.866-1.2 1.5-2.767 1.9-4.7.4-2 .6-4.533.6-7.6zm80.604 0c0 4.2-.533 8.033-1.6 11.5-1 3.467-2.633 6.467-4.9 9-2.2 2.533-5.1 4.5-8.7 5.9-3.6 1.4-8 2.1-13.2 2.1-5.2 0-9.6-.7-13.2-2.1-3.533-1.4-6.433-3.333-8.7-5.8-2.266-2.533-3.9-5.533-4.9-9-1-3.467-1.5-7.3-1.5-11.5s.5-8.033 1.5-11.5c1-3.467 2.634-6.433 4.9-8.9 2.267-2.533 5.167-4.5 8.7-5.9 3.6-1.4 8-2.1 13.2-2.1 5.2 0 9.6.7 13.2 2.1 3.6 1.333 6.5 3.267 8.7 5.8 2.267 2.467 3.9 5.433 4.9 8.9 1.067 3.467 1.6 7.3 1.6 11.5zm-18.3 0c0-3.067-.2-5.567-.6-7.5-.4-1.933-1.033-3.467-1.9-4.6-.866-1.133-1.933-1.9-3.2-2.3-1.266-.467-2.733-.7-4.4-.7-1.733 0-3.233.233-4.5.7-1.2.4-2.233 1.167-3.1 2.3-.866 1.133-1.5 2.7-1.9 4.7-.4 1.933-.6 4.433-.6 7.5s.2 5.6.6 7.6c.4 1.933 1.034 3.5 1.9 4.7.867 1.133 1.9 1.933 3.1 2.4 1.267.4 2.767.6 4.5.6 1.667 0 3.134-.233 4.4-.7 1.267-.467 2.334-1.267 3.2-2.4.867-1.2 1.5-2.767 1.9-4.7.4-2 .6-4.533.6-7.6zm80.905-.2c0 4.4-.567 8.367-1.7 11.9-1.133 3.533-2.833 6.567-5.1 9.1-2.267 2.467-5.167 4.367-8.7 5.7-3.467 1.333-7.533 2-12.2 2-1.4 0-2.967-.167-4.7-.5-1.667-.267-3.333-.8-5-1.6.4.933.667 1.6.8 2 .2.4.3.867.3 1.4v21.5h-18.1v-78h13.5l1.5 3.8c2.067-1.867 4.3-3.233 6.7-4.1 2.4-.867 4.867-1.3 7.4-1.3 3.667 0 7.033.567 10.1 1.7 3.133 1.133 5.833 2.867 8.1 5.2 2.267 2.333 4 5.267 5.2 8.8 1.267 3.467 1.9 7.6 1.9 12.4zm-18.1 0c0-5.333-.8-9.333-2.4-12-1.533-2.667-4.133-4-7.8-4-1.133 0-2.367.233-3.7.7-1.267.4-2.7 1.067-4.3 2v28.3c1.533.733 2.9 1.2 4.1 1.4 1.2.133 2.4.2 3.6.2 3.733 0 6.4-1.333 8-4 1.667-2.667 2.5-6.867 2.5-12.6zm73.298 9.9c0 3.2-.634 5.967-1.9 8.3-1.2 2.333-2.9 4.3-5.1 5.9-2.2 1.533-4.834 2.667-7.9 3.4-3.067.8-6.434 1.2-10.1 1.2-6.8 0-12.2-1.2-16.2-3.6-4-2.4-6.934-5.5-8.8-9.3l12.7-4.8c1.4 2.133 3.066 3.633 5 4.5 2 .867 4.433 1.3 7.3 1.3.933 0 1.866-.067 2.8-.2.933-.133 1.766-.367 2.5-.7a4.372 4.372 0 001.8-1.5c.466-.667.7-1.5.7-2.5 0-1.067-.234-1.967-.7-2.7-.467-.8-1.567-1.367-3.3-1.7l-12.8-2.1c-2.067-.333-4-.9-5.8-1.7-1.8-.8-3.4-1.867-4.8-3.2-1.334-1.4-2.4-3.1-3.2-5.1-.734-2-1.1-4.333-1.1-7 0-3 .633-5.533 1.9-7.6a14.943 14.943 0 015.3-5.1c2.2-1.333 4.766-2.3 7.7-2.9 2.933-.6 6.033-.9 9.3-.9 5.666 0 10.4.933 14.2 2.8 3.8 1.867 6.866 4.5 9.2 7.9l-11.8 6.2a14.236 14.236 0 00-4.8-3.6c-1.867-.867-4.134-1.3-6.8-1.3-1.8 0-3.434.267-4.9.8-1.4.533-2.1 1.667-2.1 3.4 0 2.067 1.1 3.3 3.3 3.7l11.3 1.9c2.6.4 4.933 1 7 1.8 2.133.733 3.933 1.733 5.4 3a12.274 12.274 0 013.5 4.7c.8 1.867 1.2 4.1 1.2 6.7zm23.383-5.4h-13.3l-2.3-18.2v-37h17.7v37.1l-2.1 18.1zm2.2 21.6c0 .733-.334 1.1-1 1.1h-15.8c-.667 0-1-.367-1-1.1V89.4c0-.533.066-.867.2-1 .133-.133.4-.2.8-.2h15.8c.4 0 .666.067.8.2.133.133.2.467.2 1v15.5z" fill="#fff"/></svg>
